X:1
T:Divel in Ireland, The
M:6/8
L:1/8
R:Jig
S:Joshua Gibbons ms (1823-26)
Z:AK/Fiddler's Companion
K:C
G|c2d ede|c2A A2c|B2d ded|B2G G2B|c2d ede|ceg c'bc'|
agf ede|B2A A2::a|g2e ede|g2e e2a|g2e ede|c2A A2a|
g2e ede|ceg c'gc'|age ede|c2A A2:|

